X:66
T:Flinton Fiddler's Reel
R:reel
C:Bruce Osborne - Mar. 2002
Z:abc by bosborne@kos.net
M:2/4
L:1/8
K:Dmaj
F/G/|A/F/D/F/ A/F/D/F/|B/A/B/c/ d/e/d/B/|A/F/A/d/ f/e/d/f/|e[A e] [Ae]F/G/|\
A/F/D/F/ A/F/D/F/|B/A/B/c/ d/e/d/B/|A/F/A/d/ f/e/d/f/|e/d/c/e/ d:|
|:F/E/|DD/F/ E/D/C/E/|D/F/A/c/ d/f/e/d/|D/F/A/c/ d/f/e/d/|c[c a] [ca]F/E/|\
DD/F/ E/D/C/E/|D/F/A/c/ d/f/e/d/|D/F/A/c/ d/f/e/d/|c/A/B/c/ d:|
